dist/images/icons/money.svg

<svg width="28" height="29" viewBox="0 0 28 29" fill="none" xmlns="http://www.w3.org/2000/svg">
<path d="M18.4533 9.21076C13.1873 9.21076 8.90656 13.4915 8.90656 18.7575C8.90656 21.8581 10.4262 24.775 12.9702 26.5674L13.6159 27.0239H2.42147C1.79245 27.0239 1.28032 26.5118 1.28032 25.8827V24.1014C1.28032 23.4724 1.79245 22.9603 2.42147 22.9603H6.87475C7.22545 22.9603 7.51491 22.6708 7.51491 22.3201C7.51491 21.9694 7.22545 21.6799 6.87475 21.6799H5.09344C4.46441 21.6799 3.95229 21.1678 3.95229 20.5388V18.7575C3.95229 18.1285 4.46441 17.6163 5.09344 17.6163H6.87475C7.22545 17.6163 7.51491 17.3269 7.51491 16.9762C7.51491 16.6255 7.22545 16.336 6.87475 16.336H3.31213C2.6831 16.336 2.17097 15.8239 2.17097 15.1949V13.4135C2.17097 12.7845 2.6831 12.2724 3.31213 12.2724H8.65606C9.00676 12.2724 9.29622 11.9829 9.29622 11.6322C9.29622 11.2815 9.00676 10.9921 8.65606 10.9921H5.09344C4.46441 10.9921 3.95229 10.4799 3.95229 9.85092V8.06961C3.95229 7.44058 4.46441 6.92845 5.09344 6.92845H14.8907C16.2266 6.92845 17.3121 5.84297 17.3121 4.50698V2.72567C17.3121 1.38969 16.2266 0.304199 14.8907 0.304199H2.42147C1.08549 0.304199 0 1.38969 0 2.72567V4.50698C0 5.70937 0.885089 6.92845 2.57734 6.92845H2.9336L2.8167 7.26245C2.72763 7.52408 2.67753 7.79128 2.67753 8.06961C2.67753 8.3869 2.67753 8.6541 2.67753 8.8879C2.67197 10.0457 2.67197 10.2851 2.8501 10.7416L2.95586 11.0032L2.6831 11.0756C1.63101 11.3595 0.896221 12.3225 0.896221 13.4135V15.1949C0.896221 16.2859 1.63101 17.2434 2.6831 17.5328L2.95586 17.6052L2.8501 17.8668C2.73876 18.1507 2.67753 18.4513 2.67753 18.7575C2.67753 19.097 2.67753 19.3809 2.67753 19.6259C2.67197 20.7002 2.67197 20.9229 2.8167 21.3459L2.9336 21.6799H2.57734C0.885089 21.6799 0 22.899 0 24.1014V25.8827C0 27.2187 1.08549 28.3042 2.42147 28.3042H18.4533C23.7193 28.3042 28 24.0235 28 18.7575C28 13.4915 23.7193 9.21076 18.4533 9.21076ZM2.42147 5.64814C1.79245 5.64814 1.28032 5.13601 1.28032 4.50698V2.72567C1.28032 2.09664 1.79245 1.58452 2.42147 1.58452H14.8907C15.5197 1.58452 16.0318 2.09664 16.0318 2.72567V4.50698C16.0318 5.13601 15.5197 5.64814 14.8907 5.64814H2.42147ZM18.4533 27.0239C13.8942 27.0239 10.1869 23.3165 10.1869 18.7575C10.1869 14.1984 13.8942 10.4911 18.4533 10.4911C23.0123 10.4911 26.7197 14.1984 26.7197 18.7575C26.7197 23.3165 23.0123 27.0239 18.4533 27.0239Z" fill="#00B4E3"/>
<path d="M18.8986 19.3976C20.4795 19.3976 21.7654 18.1118 21.7654 16.5308C21.7654 14.9499 20.4795 13.664 18.8986 13.664H15.7813C15.4306 13.664 15.1412 13.9535 15.1412 14.3042V23.2108C15.1412 23.5615 15.4306 23.8509 15.7813 23.8509C16.132 23.8509 16.4215 23.5615 16.4215 23.2108V22.0696H18.4533C18.804 22.0696 19.0934 21.7801 19.0934 21.4294C19.0934 21.0788 18.804 20.7893 18.4533 20.7893H16.4215V19.3976H18.8986ZM16.4215 14.9444H18.8986C19.7726 14.9444 20.4851 15.6569 20.4851 16.5308C20.4851 17.4048 19.7726 18.1173 18.8986 18.1173H16.4215V14.9444Z" fill="#00B4E3"/>
</svg>

<svg width="28" height="29" viewBox="0 0 28 29" fill="none" xmlns="http://www.w3.org/2000/svg"><path d="M18.453 9.21c-5.266 0-9.546 4.281-9.546 9.547a9.569 9.569 0 004.063 7.81l.646.457H2.42a1.143 1.143 0 01-1.14-1.141V24.1c0-.629.511-1.14 1.14-1.14h4.454c.35 0 .64-.29.64-.64a.644.644 0 00-.64-.641H5.093a1.143 1.143 0 01-1.14-1.141v-1.782c0-.629.511-1.14 1.14-1.14h1.782c.35 0 .64-.29.64-.64a.644.644 0 00-.64-.641H3.312a1.143 1.143 0 01-1.141-1.141v-1.781c0-.63.512-1.142 1.141-1.142h5.344c.35 0 .64-.29.64-.64 0-.35-.29-.64-.64-.64H5.093a1.143 1.143 0 01-1.14-1.141V8.07c0-.63.511-1.142 1.14-1.142h9.798a2.423 2.423 0 002.421-2.421V2.726A2.423 2.423 0 0014.891.304H2.42A2.423 2.423 0 000 2.726v1.781c0 1.202.885 2.421 2.577 2.421h.357l-.117.334c-.09.262-.14.53-.14.808v.818c-.005 1.158-.005 1.397.173 1.854l.106.261-.273.073a2.425 2.425 0 00-1.787 2.338v1.78a2.43 2.43 0 001.787 2.339l.273.072-.106.262a2.438 2.438 0 00-.172.89v.869c-.006 1.074-.006 1.297.139 1.72l.117.334h-.357C.885 21.68 0 22.899 0 24.1v1.782a2.423 2.423 0 002.421 2.421h16.032c5.266 0 9.547-4.28 9.547-9.546 0-5.266-4.28-9.547-9.547-9.547zM2.421 5.649a1.143 1.143 0 01-1.14-1.141V2.726c0-.63.511-1.141 1.14-1.141h12.47c.629 0 1.14.512 1.14 1.14v1.782c0 .629-.511 1.141-1.14 1.141H2.42zm16.032 21.376c-4.559 0-8.266-3.707-8.266-8.267 0-4.559 3.707-8.266 8.266-8.266 4.56 0 8.267 3.707 8.267 8.267 0 4.559-3.708 8.266-8.267 8.266z" fill="#00B4E3"/><path d="M18.899 19.398a2.87 2.87 0 002.866-2.867 2.87 2.87 0 00-2.866-2.867H15.78c-.35 0-.64.29-.64.64v8.907c0 .35.29.64.64.64.351 0 .64-.29.64-.64V22.07h2.032c.351 0 .64-.29.64-.64a.643.643 0 00-.64-.64h-2.031v-1.392h2.477zm-2.477-4.454h2.477a1.59 1.59 0 011.586 1.587 1.59 1.59 0 01-1.586 1.586h-2.477v-3.173z" fill="#00B4E3"/></svg>
